src/assets/texture.svg

<?xml version="1.0" encoding="UTF-8" standalone="no"?>
<svg
   xmlns:dc="http://purl.org/dc/elements/1.1/"
   xmlns:cc="http://creativecommons.org/ns#"
   xmlns:rdf="http://www.w3.org/1999/02/22-rdf-syntax-ns#"
   xmlns:svg="http://www.w3.org/2000/svg"
   xmlns="http://www.w3.org/2000/svg"
   xmlns:sodipodi="http://sodipodi.sourceforge.net/DTD/sodipodi-0.dtd"
   xmlns:inkscape="http://www.inkscape.org/namespaces/inkscape"
   width="32"
   height="32"
   id="svg4141"
   version="1.1"
   inkscape:version="0.91+devel+osxmenu r12911"
   sodipodi:docname="texture.svg"
   viewBox="0 0 32 32"
   inkscape:export-filename="/Users/wouterraateland/repositories/sympo-2018/src/assets/texture.png"
   inkscape:export-xdpi="768"
   inkscape:export-ydpi="768">
  <metadata
     id="metadata4149">
    <rdf:RDF>
      <cc:Work
         rdf:about="">
        <dc:format>image/svg+xml</dc:format>
        <dc:type
           rdf:resource="http://purl.org/dc/dcmitype/StillImage" />
      </cc:Work>
    </rdf:RDF>
  </metadata>
  <defs
     id="defs4147" />
  <sodipodi:namedview
     pagecolor="#ffffff"
     bordercolor="#666666"
     borderopacity="1"
     objecttolerance="10"
     gridtolerance="10"
     guidetolerance="10"
     inkscape:pageopacity="0"
     inkscape:pageshadow="2"
     inkscape:window-width="640"
     inkscape:window-height="480"
     id="namedview4145"
     inkscape:document-units="px"
     showgrid="false"
     inkscape:zoom="7.1594562"
     inkscape:cx="7.1604938"
     inkscape:cy="16"
     inkscape:current-layer="svg4141" />
  <path
     d="m 11.333,7 0,-4.664 -0.664,0 0,-0.672 1.328,-0.664 0.672,0 0,6 -1.336,0 z m 8,8 0,-4.664 -0.664,0 0,-0.672 1.328,-0.664 0.672,0 0,6 -1.336,0 z m 8,8 0,-4.665 -0.664,0 0,-0.672 1.328,-0.663 0.672,0 0,6 -1.336,0 z m 0,-16 0,-4.664 -0.664,0 0,-0.672 1.328,-0.664 0.672,0 0,6 -1.336,0 z m -16,16 0,-4.665 -0.664,0 0,-0.672 1.328,-0.663 0.672,0 0,6 -1.336,0 z m -8,7.999 0,-4.664 -0.663,0 0,-0.672 1.327,-0.663 0.672,0 0,6 -1.336,0 z m 0,-15.999 0,-4.664 -0.663,0 0,-0.672 L 3.997,9 l 0.672,0 0,6 -1.336,0 z m 16,15.999 0,-4.664 -0.664,0 0,-0.672 1.328,-0.663 0.672,0 0,6 -1.336,0 z m 0.002,-29.998 1.336,0 q 0.544,0 0.936,0.4 0.392,0.392 0.392,0.936 l 0,3.328 q 0,0.544 -0.392,0.944 -0.392,0.392 -0.936,0.392 l -1.336,0 q -0.544,0 -0.944,-0.392 Q 18,6.217 18,5.665 l 0,-3.328 q 0,-0.552 0.391,-0.944 0.4,-0.392 0.944,-0.392 z m 0.015,4.776 q 0.048,0.272 0.208,0.416 0.168,0.144 0.44,0.144 0.28,0 0.472,-0.2 0.2,-0.2 0.2,-0.472 l 0,-2.265 -1.32,2.376 z m 1.312,-3.56 q -0.144,-0.552 -0.664,-0.552 -0.272,0 -0.472,0.2 -0.192,0.192 -0.192,0.472 l 0,2.263 1.328,-2.384 z M 3.336,1.001 l 1.336,0 q 0.544,0 0.936,0.4 Q 6,1.793 6,2.337 L 6,5.665 Q 6,6.209 5.608,6.609 5.216,7 4.672,7 L 3.336,7 Q 2.792,7 2.392,6.608 2,6.217 2,5.665 L 2,2.337 Q 2,1.785 2.392,1.393 2.792,1.001 3.336,1.001 Z M 3.352,5.777 Q 3.4,6.049 3.56,6.193 3.728,6.337 4,6.337 q 0.28,0 0.472,-0.2 0.2,-0.2 0.2,-0.472 l 0,-2.265 -1.32,2.376 z M 4.664,2.217 Q 4.52,1.665 4,1.665 q -0.272,0 -0.472,0.2 -0.192,0.192 -0.192,0.472 l 0,2.263 1.328,-2.384 z M 11.336,9 12.672,9 Q 13.216,9 13.608,9.4 14,9.793 14,10.337 l 0,3.328 q 0,0.544 -0.392,0.944 -0.392,0.392 -0.936,0.392 l -1.336,0 q -0.544,0 -0.944,-0.392 Q 10,14.217 10,13.665 l 0,-3.328 q 0,-0.552 0.392,-0.944 0.4,-0.392 0.944,-0.392 z m 0.015,4.777 q 0.048,0.272 0.208,0.416 0.168,0.144 0.44,0.144 0.28,0 0.472,-0.2 0.2,-0.2 0.2,-0.472 l 0,-2.265 -1.32,2.376 z m 1.312,-3.56 q -0.144,-0.552 -0.664,-0.552 -0.272,0 -0.472,0.2 -0.192,0.192 -0.192,0.472 l 0,2.263 1.328,-2.384 z M 3.336,17 4.672,17 Q 5.216,17 5.608,17.4 6,17.792 6,18.336 l 0,3.328 Q 6,22.208 5.608,22.608 5.216,23 4.672,23 L 3.336,23 Q 2.792,23 2.392,22.608 2,22.216 2,21.664 L 2,18.336 Q 2,17.784 2.392,17.392 2.792,17 3.336,17 Z m 0.016,4.776 q 0.048,0.272 0.208,0.416 0.168,0.144 0.44,0.144 0.28,0 0.472,-0.2 0.2,-0.2 0.2,-0.472 l 0,-2.264 -1.32,2.376 z m 1.312,-3.56 Q 4.52,17.664 4,17.664 q -0.272,0 -0.472,0.2 -0.192,0.192 -0.192,0.472 l 0,2.264 1.328,-2.384 z m 6.672,6.784 1.336,0 q 0.544,0 0.936,0.4 Q 14,25.792 14,26.336 l 0,3.328 q 0,0.544 -0.392,0.944 Q 13.216,31 12.672,31 l -1.336,0 Q 10.792,31 10.392,30.608 10,30.216 10,29.664 l 0,-3.328 Q 10,25.784 10.392,25.392 10.792,25 11.336,25 Z m 0.015,4.776 q 0.048,0.272 0.208,0.416 0.168,0.144 0.44,0.144 0.28,0 0.472,-0.2 0.2,-0.2 0.2,-0.472 l 0,-2.264 -1.32,2.376 z m 1.312,-3.56 q -0.144,-0.552 -0.664,-0.552 -0.272,0 -0.472,0.2 -0.192,0.192 -0.192,0.472 l 0,2.264 1.328,-2.384 z M 27.335,25 l 1.336,0 q 0.544,0 0.936,0.4 0.392,0.392 0.392,0.936 l 0,3.328 q 0,0.544 -0.392,0.944 Q 29.215,31 28.671,31 l -1.336,0 q -0.544,0 -0.944,-0.392 -0.392,-0.392 -0.392,-0.944 l 0,-3.328 q 0,-0.552 0.392,-0.944 Q 26.791,25 27.335,25 Z m 0.015,4.776 q 0.048,0.272 0.208,0.416 0.168,0.144 0.44,0.144 0.28,0 0.472,-0.2 0.2,-0.2 0.2,-0.472 l 0,-2.264 -1.32,2.376 z m 1.312,-3.56 q -0.144,-0.552 -0.664,-0.552 -0.272,0 -0.472,0.2 -0.192,0.192 -0.192,0.472 l 0,2.264 1.328,-2.384 z M 27.335,9 28.671,9 q 0.544,0 0.936,0.4 0.392,0.393 0.392,0.937 l 0,3.328 q 0,0.544 -0.392,0.944 -0.392,0.392 -0.936,0.392 l -1.336,0 q -0.544,0 -0.944,-0.392 -0.392,-0.392 -0.392,-0.944 l 0,-3.328 q 0,-0.552 0.392,-0.944 0.4,-0.392 0.944,-0.392 z m 0.015,4.777 q 0.048,0.272 0.208,0.416 0.168,0.144 0.44,0.144 0.28,0 0.472,-0.2 0.2,-0.2 0.2,-0.472 l 0,-2.265 -1.32,2.376 z m 1.312,-3.56 q -0.144,-0.552 -0.664,-0.552 -0.272,0 -0.472,0.2 -0.192,0.192 -0.192,0.472 l 0,2.263 1.328,-2.384 z M 19.335,17 l 1.336,0 q 0.544,0 0.936,0.4 0.392,0.392 0.392,0.936 l 0,3.328 q 0,0.544 -0.392,0.944 Q 21.215,23 20.671,23 l -1.336,0 Q 18.791,23 18.391,22.608 18,22.216 18,21.664 l 0,-3.328 Q 18,17.784 18.391,17.392 18.791,17 19.335,17 Z m 0.015,4.776 q 0.048,0.272 0.208,0.416 0.168,0.144 0.44,0.144 0.28,0 0.472,-0.2 0.2,-0.2 0.2,-0.472 l 0,-2.264 -1.32,2.376 z m 1.312,-3.56 q -0.144,-0.552 -0.664,-0.552 -0.272,0 -0.472,0.2 -0.192,0.192 -0.192,0.472 l 0,2.264 1.328,-2.384 z"
     id="path4143"
     inkscape:connector-curvature="0"
     style="fill:#000000;fill-opacity:1" />
</svg>

<svg xmlns="http://www.w3.org/2000/svg" width="32" height="32">
  <path fill="#fff" d="M11.333 7V2.336h-.664v-.672L11.997 1h.672v6h-1.336zM19.333 15v-4.664h-.664v-.672L19.997 9h.672v6h-1.336zM27.333 23v-4.665h-.664v-.672L27.997 17h.672v6h-1.336zM27.333 7V2.336h-.664v-.672L27.997 1h.672v6h-1.336zM11.333 23v-4.665h-.664v-.672L11.997 17h.672v6h-1.336zM3.333 30.999v-4.664H2.67v-.672L3.997 25h.672v6H3.333zM3.333 15v-4.664H2.67v-.672L3.997 9h.672v6H3.333zM19.333 30.999v-4.664h-.664v-.672L19.997 25h.672v6h-1.336zM19.335 1.001h1.336q.544 0 .936.4.392.392.392.936v3.328q0 .544-.392.944-.392.392-.936.392h-1.336q-.544 0-.944-.392Q18 6.217 18 5.665V2.337q0-.552.391-.944.4-.392.944-.392zm.015 4.776q.048.272.208.416.168.144.44.144.28 0 .472-.2.2-.2.2-.472V3.4l-1.32 2.376zm1.312-3.56q-.144-.552-.664-.552-.272 0-.472.2-.192.192-.192.472V4.6l1.328-2.384zM3.336 1.001h1.336q.544 0 .936.4.392.392.392.936v3.328q0 .544-.392.944Q5.216 7 4.672 7H3.336q-.544 0-.944-.392Q2 6.217 2 5.665V2.337q0-.552.392-.944.4-.392.944-.392zm.016 4.776q.048.272.208.416.168.144.44.144.28 0 .472-.2.2-.2.2-.472V3.4l-1.32 2.376zm1.312-3.56Q4.52 1.665 4 1.665q-.272 0-.472.2-.192.192-.192.472V4.6l1.328-2.384zM11.336 9h1.336q.544 0 .936.4.392.393.392.937v3.328q0 .544-.392.944-.392.392-.936.392h-1.336q-.544 0-.944-.392-.392-.392-.392-.944v-3.328q0-.552.392-.944.4-.392.944-.392zm.015 4.777q.048.272.208.416.168.144.44.144.28 0 .472-.2.2-.2.2-.472V11.4l-1.32 2.376zm1.312-3.56q-.144-.552-.664-.552-.272 0-.472.2-.192.192-.192.472V12.6l1.328-2.384zM3.336 17h1.336q.544 0 .936.4.392.392.392.936v3.328q0 .544-.392.944-.392.392-.936.392H3.336q-.544 0-.944-.392Q2 22.216 2 21.664v-3.328q0-.552.392-.944.4-.392.944-.392zm.016 4.776q.048.272.208.416.168.144.44.144.28 0 .472-.2.2-.2.2-.472V19.4l-1.32 2.376zm1.312-3.56q-.144-.552-.664-.552-.272 0-.472.2-.192.192-.192.472V20.6l1.328-2.384zM11.336 25h1.336q.544 0 .936.4.392.392.392.936v3.328q0 .544-.392.944-.392.392-.936.392h-1.336q-.544 0-.944-.392-.392-.392-.392-.944v-3.328q0-.552.392-.944.4-.392.944-.392zm.015 4.776q.048.272.208.416.168.144.44.144.28 0 .472-.2.2-.2.2-.472V27.4l-1.32 2.376zm1.312-3.56q-.144-.552-.664-.552-.272 0-.472.2-.192.192-.192.472V28.6l1.328-2.384zM27.335 25h1.336q.544 0 .936.4.392.392.392.936v3.328q0 .544-.392.944-.392.392-.936.392h-1.336q-.544 0-.944-.392-.392-.392-.392-.944v-3.328q0-.552.392-.944.4-.392.944-.392zm.015 4.776q.048.272.208.416.168.144.44.144.28 0 .472-.2.2-.2.2-.472V27.4l-1.32 2.376zm1.312-3.56q-.144-.552-.664-.552-.272 0-.472.2-.192.192-.192.472V28.6l1.328-2.384zM27.335 9h1.336q.544 0 .936.4.392.393.392.937v3.328q0 .544-.392.944-.392.392-.936.392h-1.336q-.544 0-.944-.392-.392-.392-.392-.944v-3.328q0-.552.392-.944.4-.392.944-.392zm.015 4.777q.048.272.208.416.168.144.44.144.28 0 .472-.2.2-.2.2-.472V11.4l-1.32 2.376zm1.312-3.56q-.144-.552-.664-.552-.272 0-.472.2-.192.192-.192.472V12.6l1.328-2.384zM19.335 17h1.336q.544 0 .936.4.392.392.392.936v3.328q0 .544-.392.944-.392.392-.936.392h-1.336q-.544 0-.944-.392-.391-.392-.391-.944v-3.328q0-.552.391-.944.4-.392.944-.392zm.015 4.776q.048.272.208.416.168.144.44.144.28 0 .472-.2.2-.2.2-.472V19.4l-1.32 2.376zm1.312-3.56q-.144-.552-.664-.552-.272 0-.472.2-.192.192-.192.472V20.6l1.328-2.384z" />
</svg>
